svg/fluentui-system-icons/ic_fluent_text_align_center_rotate_90_16_filled.svg

<svg width="16" height="16" viewBox="0 0 16 16" fill="none" xmlns="http://www.w3.org/2000/svg">
<path d="M12.25 3C12.6642 3 13 3.33579 13 3.75V12.25C13 12.6642 12.6642 13 12.25 13C11.8358 13 11.5 12.6642 11.5 12.25V3.75C11.5 3.33579 11.8358 3 12.25 3ZM8.25 1C8.66421 1 9 1.33579 9 1.75V14.25C9 14.6642 8.66421 15 8.25 15C7.83579 15 7.5 14.6642 7.5 14.25V1.75C7.5 1.33579 7.83579 1 8.25 1ZM4.25 5C4.66421 5 5 5.33579 5 5.75V10.25C5 10.6642 4.66421 11 4.25 11C3.83579 11 3.5 10.6642 3.5 10.25V5.75C3.5 5.33579 3.83579 5 4.25 5Z" fill="#212121"/>
</svg>

<svg xmlns="http://www.w3.org/2000/svg" width="16" height="16"><path d="M12.25 3a.75.75 0 0 1 .75.75v8.5a.75.75 0 0 1-1.5 0v-8.5a.75.75 0 0 1 .75-.75Zm-4-2a.75.75 0 0 1 .75.75v12.5a.75.75 0 0 1-1.5 0V1.75A.75.75 0 0 1 8.25 1Zm-4 4a.75.75 0 0 1 .75.75v4.5a.75.75 0 0 1-1.5 0v-4.5A.75.75 0 0 1 4.25 5Z"/></svg>
